X: 371
T: Jamaica
P: Longways for as many as will
%R: jig
B: "The Dancing-Master: Containing Directions and Tunes for Dancing" printed by W. Pearson for John Walsh, London ca. 1709
S: 7: DMDfD http://digital.nls.uk/special-collections-of-printed-music/pageturner.cfm?id=89751228 p.79 "H 4"
Z: 2013 John Chambers <jc:trillian.mit.edu>
M: C|
L: 1/8
K: F
% - - - - - - - - - - - - - - - - - - - - - - - - -
[|\
F2A2 A2=B^c | d2^c2 d4 | c2A2 (BA) (GF) | G4 F4 ][ \
f2f2 e2(dc) | d2d2 c2A2 | f2f2 (ef)g2 | d4 c4 |\
f2f2 e2(dc) | d2d2 c2A2 | (Bc)d2 c2(BA) | G4 F4 |]
% - - - - - - - - - - - - - - - - - - - - - - - - -
%%begintext align
%% The 1. man take his wo. by the right-hand, then by the left, and so holding hands change places,
%% then do the same to the 2. wo. the 1. wo. and 2. man do the same :| Then fall back from your own,
%% the 1. cu. being in the 2. cu. place, go the Figure of 8 .| Do this to the last.
%%endtext
%%sep 1 1 300
%%begintext align
%% The 1. man take hands with the 2. wo. and turn her round, the 1. wo. and 2. man do as much :| Then
%% the two men take hands, and the two we. take hands, and turn once and a half, then turn your own .|
%% Do this to the last.
%% [DMDfD]
%%endtext
%%sep 1 8 500

%%sep 1 1 500
%%sep 1 1 500
